X: 20424
T: SAUNDERS' REEL
C:
%R: reel, hornpipe
B: Elias Howe "The Musician's Companion" 1843 p.42 #4
S: http://imslp.org/wiki/The_Musician's_Companion_(Howe,_Elias)
Z: 2015 John Chambers <jc:trillian.mit.edu>
M: 2/4
L: 1/16
K: F
% - - - - - - - - - - - - - - - - - - - - - - - - -
|:\
f2{g}fe f<c ({d}cB) | AFcF dFcF |\
f2{g}fe f<c ({d}dB) | ABGB AFFz ::\
AFcF dFcF | AFcF AGGB |\
AFcF dFcF | ABGB AFFz :|
% - - - - - - - - - - - - - - - - - - - - - - - - -
